src/assets/compendia/icons/tokens-core/neutral-bajoran-token.svg

<svg xmlns="http://www.w3.org/2000/svg" xml:space="preserve" style="fill-rule:evenodd;clip-rule:evenodd;stroke-linejoin:round;stroke-miterlimit:2" viewBox="0 0 256 256"><path d="M0 0h256v256H0z" style="fill:none"/><g><circle cx="128" cy="128" r="128"/><path d="M128 0c70.645 0 128 57.355 128 128s-57.355 128-128 128S0 198.645 0 128 57.355 0 128 0m0 8C61.77 8 8 61.77 8 128s53.77 120 120 120 120-53.77 120-120S194.23 8 128 8" style="fill:#666"/><path d="M29.962 24.07q-.06.048-.054.114t.078.246l.036.072q.096.216.09.3t-.126.096q.12-.072.114-.168t-.15-.24a.3.3 0 0 1-.072-.06 1.3 1.3 0 0 1-.204-.216q-.024-.048-.006-.084t.078-.06a.5.5 0 0 1 .216 0m.12.024q.12.024.204.072-.084.024-.102.09a1.5 1.5 0 0 0-.018.306v.024q.012.252-.024.324t-.156.036q.144-.012.162-.126t-.078-.33l-.024-.06a1 1 0 0 1-.09-.234q-.006-.054.024-.078t.102-.024m-.456 0q-.036.06 0 .132.06.096.216.228l.072.072q.132.12.144.216 0 .06-.084.108.096-.132.024-.216t-.312-.168q0-.012-.024-.012l-.024-.012a.8.8 0 0 1-.234-.114q-.066-.054.03-.15.048-.024.156-.072zm-.288.156q-.012.048.048.114t.24.126l.048.012q.228.096.288.156.036.072-.024.156.048-.144-.06-.204t-.348-.048h-.024q-.216.012-.27-.012t-.066-.054.012-.09v-.012l.036-.036a.5.5 0 0 1 .12-.108m-.216.252q0 .072.084.096t.3.012h.228q.084.012.12.036.072.036.048.144-.024-.156-.138-.174t-.33.102q-.012 0-.024.012-.204.096-.276.096-.096.024-.096-.12.048-.144.084-.204m-.108.324q.048.06.126.054t.294-.114l.024-.012q.204-.096.3-.084.072 0 .096.12-.072-.108-.168-.108t-.24.156l-.072.072q-.12.132-.216.204-.048.024-.078.006t-.066-.09zm.024.324a.12.12 0 0 0 .144 0 1 1 0 0 0 .156-.12l.072-.084q.036-.06.072-.072.132-.144.204-.144t.12.084q-.12-.096-.228-.024a1 1 0 0 0-.084.108l-.084.192-.012.048a.8.8 0 0 1-.12.24.1.1 0 0 1-.072.018q-.036-.006-.084-.054a.7.7 0 0 1-.084-.192m.156.3q.048.012.12-.036a.8.8 0 0 0 .12-.252l.024-.048q.048-.132.078-.198a.18.18 0 0 1 .078-.09q.06-.06.156.012-.156-.036-.21.06t-.042.348v.024q0 .228-.012.288-.036.084-.156.036a.5.5 0 0 1-.12-.108zm.252.216a.14.14 0 0 0 .096-.09q.024-.066.024-.306v-.024q-.012-.228.036-.312t.144-.048q-.144.012-.162.126t.078.33l.024.06q.084.18.084.24.024.108-.12.096a.7.7 0 0 1-.204-.072m.324.096q.06-.048.054-.114a1 1 0 0 0-.078-.246l-.036-.072q-.096-.216-.09-.3t.126-.096q-.12.072-.114.168t.15.24a.4.4 0 0 1 .084.072q.168.144.192.198t.006.09-.078.06a.4.4 0 0 1-.114.012.3.3 0 0 1-.102-.012m.336-.024q.036-.06 0-.132a1 1 0 0 0-.216-.228.14.14 0 0 0-.048-.048l-.024-.024a.6.6 0 0 1-.144-.216q0-.06.084-.108-.096.132-.024.216a.3.3 0 0 0 .102.084q.066.036.21.084 0 .012.024.012l.024.012a.8.8 0 0 1 .234.114q.066.054-.03.15-.048.024-.156.072zm.288-.156q.024-.06-.03-.108a1 1 0 0 0-.246-.132l-.06-.012q-.228-.096-.288-.156-.036-.072.024-.156-.048.144.06.204t.348.048h.024q.216-.012.276.012t.066.054-.018.09v.012l-.036.036a.5.5 0 0 1-.12.108m.216-.252q0-.06-.078-.09t-.306-.018h-.024q-.24.012-.318-.03t-.042-.162q.024.168.126.18t.33-.096q.012 0 .024-.012a1.3 1.3 0 0 1 .276-.096q.048 0 .072.03t.024.102a.7.7 0 0 1-.084.192m.108-.312q-.024-.06-.114-.054t-.306.102l-.024.012q-.204.096-.294.078t-.09-.114q.06.132.156.12t.24-.168l.024-.024a.14.14 0 0 0 .048-.048q.12-.132.216-.204.096-.036.144.084zm-.024-.336q-.072-.06-.144 0a1 1 0 0 0-.156.12l-.072.084a.3.3 0 0 1-.072.072q-.12.144-.198.144t-.126-.084q.12.096.228.024.072-.06.168-.3l.036-.108a1 1 0 0 1 .102-.174q.03-.03.066-.024t.084.054q.048.072.084.192m-.156-.3q-.048-.024-.108.036a.8.8 0 0 0-.132.252l-.024.048a3 3 0 0 1-.078.198.18.18 0 0 1-.078.09q-.06.06-.156-.012.168.036.216-.072a.23.23 0 0 0 .042-.12 1.4 1.4 0 0 0-.006-.216v-.024q0-.228.012-.288.036-.084.156-.036a.5.5 0 0 1 .12.108zm.552.516a4 4 0 0 0 .384-1.056q.132-.6.132-1.272 0-.744-.168-1.398a3.9 3.9 0 0 0-.462-1.116q-.294-.462-.666-.642v-1.956q.54.192.978.81t.69 1.518q.252.936.252 1.98 0 1.188-.324 2.208-.312.996-.852 1.584t-1.188.588-1.188-.588-.852-1.584a7.3 7.3 0 0 1-.324-2.208q0-1.044.252-1.98.252-.9.69-1.518t.978-.81v1.956q-.372.18-.666.642t-.462 1.116a5.6 5.6 0 0 0-.168 1.398q0 .672.132 1.272t.384 1.056q0-.156.036-.3-.384-.864-.384-2.028 0-1.032.312-1.854t.816-1.098v.06q-.48.288-.78 1.086t-.3 1.806q0 1.128.36 1.956.048-.132.156-.312-.3-.696-.3-1.644 0-.816.24-1.476t.624-.936v.252q-.324.264-.528.852a4 4 0 0 0-.204 1.308q0 .84.276 1.512.288-.3.672-.372v-6.384h.096v6.372q.024 0 .036-.012v-6.612h.192v6.612q.012.012.036.012v-6.372h.096v6.384q.384.072.672.372.276-.672.276-1.512 0-.72-.204-1.308t-.528-.852v-.252q.384.276.624.936t.24 1.476q0 .948-.3 1.644.096.12.156.312.36-.828.36-1.956 0-1.008-.3-1.806t-.78-1.086v-.06q.504.276.816 1.098t.312 1.854q0 1.164-.384 2.028.036.144.036.3m-.948-7.476h.084v2.976l-.084.072zm-.552 0v3.048l-.084-.072v-2.976zm.276 8.592q.456 0 .774-.324t.318-.774-.318-.774a1.04 1.04 0 0 0-.774-.324q-.456 0-.774.324a1.07 1.07 0 0 0-.318.774q0 .45.324.774t.768.324m0-.12a.94.94 0 0 1-.69-.282.94.94 0 0 1-.282-.69q0-.408.282-.696a.93.93 0 0 1 .69-.288q.408 0 .696.288a.95.95 0 0 1 .288.696.93.93 0 0 1-.288.69.96.96 0 0 1-.696.282m0-.06a.9.9 0 0 0 .654-.27q.27-.27.27-.648a.88.88 0 0 0-.27-.648.9.9 0 0 0-.654-.27.9.9 0 0 0-.654.27.88.88 0 0 0-.27.648q0 .378.27.648t.654.27" style="fill:#db8e57;fill-rule:nonzero" transform="translate(-431.66 -276.948)scale(18.739)"/></g></svg>

<?xml version="1.0" encoding="UTF-8" standalone="no"?>
<!DOCTYPE svg PUBLIC "-//W3C//DTD SVG 1.1//EN" "http://www.w3.org/Graphics/SVG/1.1/DTD/svg11.dtd">
<svg width="100%" height="100%" viewBox="0 0 256 256" version="1.1" xmlns="http://www.w3.org/2000/svg" xmlns:xlink="http://www.w3.org/1999/xlink" xml:space="preserve" xmlns:serif="http://www.serif.com/" style="fill-rule:evenodd;clip-rule:evenodd;stroke-linejoin:round;stroke-miterlimit:2;">
    <g transform="matrix(1,0,0,1,-4500,-600)">
        <g transform="matrix(1,0,0,1,4500,600)">
            <rect id="neutral-bajoran-token" x="0" y="0" width="256" height="256" style="fill:none;"/>
            <g id="neutral-bajoran-token1" serif:id="neutral-bajoran-token">
                <circle cx="128" cy="128" r="128"/>
                <path d="M128,0C198.645,0 256,57.355 256,128C256,198.645 198.645,256 128,256C57.355,256 0,198.645 0,128C0,57.355 57.355,0 128,0ZM128,8C61.77,8 8,61.77 8,128C8,194.23 61.77,248 128,248C194.23,248 248,194.23 248,128C248,61.77 194.23,8 128,8Z" style="fill:rgb(102,102,102);"/>
                <g transform="matrix(18.739,0,0,18.739,-431.66,-276.948)">
                    <g id="Bajoran">
                        <path id="Bajoran1" serif:id="Bajoran" d="M29.962,24.07C29.922,24.102 29.904,24.14 29.908,24.184C29.912,24.228 29.938,24.31 29.986,24.43L30.022,24.502C30.086,24.646 30.116,24.746 30.112,24.802C30.108,24.858 30.066,24.89 29.986,24.898C30.066,24.85 30.104,24.794 30.1,24.73C30.096,24.666 30.046,24.586 29.95,24.49C29.934,24.482 29.91,24.462 29.878,24.43C29.758,24.318 29.69,24.246 29.674,24.214C29.658,24.182 29.656,24.154 29.668,24.13C29.68,24.106 29.706,24.086 29.746,24.07C29.778,24.062 29.818,24.058 29.866,24.058C29.914,24.058 29.946,24.062 29.962,24.07ZM30.082,24.094C30.162,24.11 30.23,24.134 30.286,24.166C30.23,24.182 30.196,24.212 30.184,24.256C30.172,24.3 30.166,24.402 30.166,24.562L30.166,24.586C30.174,24.754 30.166,24.862 30.142,24.91C30.118,24.958 30.066,24.97 29.986,24.946C30.082,24.938 30.136,24.896 30.148,24.82C30.16,24.744 30.134,24.634 30.07,24.49L30.046,24.43C29.99,24.31 29.96,24.232 29.956,24.196C29.952,24.16 29.96,24.134 29.98,24.118C30,24.102 30.034,24.094 30.082,24.094ZM29.626,24.094C29.602,24.134 29.602,24.178 29.626,24.226C29.666,24.29 29.738,24.366 29.842,24.454C29.842,24.454 29.906,24.518 29.914,24.526C30.002,24.606 30.05,24.678 30.058,24.742C30.058,24.782 30.03,24.818 29.974,24.85C30.038,24.762 30.046,24.69 29.998,24.634C29.95,24.578 29.846,24.522 29.686,24.466C29.686,24.458 29.678,24.454 29.662,24.454L29.638,24.442C29.526,24.402 29.448,24.364 29.404,24.328C29.36,24.292 29.37,24.242 29.434,24.178C29.466,24.162 29.518,24.138 29.59,24.106L29.626,24.094ZM29.338,24.25C29.33,24.282 29.346,24.32 29.386,24.364C29.426,24.408 29.506,24.45 29.626,24.49L29.674,24.502C29.826,24.566 29.922,24.618 29.962,24.658C29.986,24.706 29.978,24.758 29.938,24.814C29.97,24.718 29.95,24.65 29.878,24.61C29.806,24.57 29.69,24.554 29.53,24.562L29.506,24.562C29.362,24.57 29.272,24.566 29.236,24.55C29.2,24.534 29.178,24.516 29.17,24.496C29.162,24.476 29.166,24.446 29.182,24.406L29.182,24.394L29.218,24.358C29.266,24.302 29.306,24.266 29.338,24.25ZM29.122,24.502C29.122,24.55 29.15,24.582 29.206,24.598C29.262,24.614 29.362,24.618 29.506,24.61L29.734,24.61C29.79,24.618 29.83,24.63 29.854,24.646C29.902,24.67 29.918,24.718 29.902,24.79C29.886,24.686 29.84,24.628 29.764,24.616C29.688,24.604 29.578,24.638 29.434,24.718C29.426,24.718 29.418,24.722 29.41,24.73C29.274,24.794 29.182,24.826 29.134,24.826C29.07,24.842 29.038,24.802 29.038,24.706C29.07,24.61 29.098,24.542 29.122,24.502ZM29.014,24.826C29.046,24.866 29.088,24.884 29.14,24.88C29.192,24.876 29.29,24.838 29.434,24.766L29.458,24.754C29.594,24.69 29.694,24.662 29.758,24.67C29.806,24.67 29.838,24.71 29.854,24.79C29.806,24.718 29.75,24.682 29.686,24.682C29.622,24.682 29.542,24.734 29.446,24.838L29.374,24.91C29.294,24.998 29.222,25.066 29.158,25.114C29.126,25.13 29.1,25.132 29.08,25.12C29.06,25.108 29.038,25.078 29.014,25.03L29.014,24.826ZM29.038,25.15C29.086,25.182 29.134,25.182 29.182,25.15C29.214,25.134 29.266,25.094 29.338,25.03L29.41,24.946C29.434,24.906 29.458,24.882 29.482,24.874C29.57,24.778 29.638,24.73 29.686,24.73C29.734,24.73 29.774,24.758 29.806,24.814C29.726,24.75 29.65,24.742 29.578,24.79C29.554,24.814 29.526,24.85 29.494,24.898L29.41,25.09L29.398,25.138C29.35,25.266 29.31,25.346 29.278,25.378C29.254,25.394 29.23,25.4 29.206,25.396C29.182,25.392 29.154,25.374 29.122,25.342C29.09,25.294 29.062,25.23 29.038,25.15ZM29.194,25.45C29.226,25.458 29.266,25.446 29.314,25.414C29.354,25.366 29.394,25.282 29.434,25.162L29.458,25.114C29.49,25.026 29.516,24.96 29.536,24.916C29.556,24.872 29.582,24.842 29.614,24.826C29.654,24.786 29.706,24.79 29.77,24.838C29.666,24.814 29.596,24.834 29.56,24.898C29.524,24.962 29.51,25.078 29.518,25.246L29.518,25.27C29.518,25.422 29.514,25.518 29.506,25.558C29.482,25.614 29.43,25.626 29.35,25.594C29.318,25.578 29.278,25.542 29.23,25.486L29.194,25.45ZM29.446,25.666C29.494,25.65 29.526,25.62 29.542,25.576C29.558,25.532 29.566,25.43 29.566,25.27L29.566,25.246C29.558,25.094 29.57,24.99 29.602,24.934C29.634,24.878 29.682,24.862 29.746,24.886C29.65,24.894 29.596,24.936 29.584,25.012C29.572,25.088 29.598,25.198 29.662,25.342L29.686,25.402C29.742,25.522 29.77,25.602 29.77,25.642C29.786,25.714 29.746,25.746 29.65,25.738C29.594,25.73 29.526,25.706 29.446,25.666ZM29.77,25.762C29.81,25.73 29.828,25.692 29.824,25.648C29.82,25.604 29.794,25.522 29.746,25.402L29.71,25.33C29.646,25.186 29.616,25.086 29.62,25.03C29.624,24.974 29.666,24.942 29.746,24.934C29.666,24.982 29.628,25.038 29.632,25.102C29.636,25.166 29.686,25.246 29.782,25.342C29.798,25.35 29.826,25.374 29.866,25.414C29.978,25.51 30.042,25.576 30.058,25.612C30.074,25.648 30.076,25.678 30.064,25.702C30.052,25.726 30.026,25.746 29.986,25.762C29.962,25.77 29.924,25.774 29.872,25.774C29.82,25.774 29.786,25.77 29.77,25.762ZM30.106,25.738C30.13,25.698 30.13,25.654 30.106,25.606C30.066,25.542 29.994,25.466 29.89,25.378C29.882,25.362 29.866,25.346 29.842,25.33L29.818,25.306C29.738,25.218 29.69,25.146 29.674,25.09C29.674,25.05 29.702,25.014 29.758,24.982C29.694,25.07 29.686,25.142 29.734,25.198C29.758,25.23 29.792,25.258 29.836,25.282C29.88,25.306 29.95,25.334 30.046,25.366C30.046,25.374 30.054,25.378 30.07,25.378L30.094,25.39C30.206,25.43 30.284,25.468 30.328,25.504C30.372,25.54 30.362,25.59 30.298,25.654C30.266,25.67 30.214,25.694 30.142,25.726L30.106,25.738ZM30.394,25.582C30.41,25.542 30.4,25.506 30.364,25.474C30.328,25.442 30.246,25.398 30.118,25.342L30.058,25.33C29.906,25.266 29.81,25.214 29.77,25.174C29.746,25.126 29.754,25.074 29.794,25.018C29.762,25.114 29.782,25.182 29.854,25.222C29.926,25.262 30.042,25.278 30.202,25.27L30.226,25.27C30.37,25.262 30.462,25.266 30.502,25.282C30.542,25.298 30.564,25.316 30.568,25.336C30.572,25.356 30.566,25.386 30.55,25.426L30.55,25.438L30.514,25.474C30.466,25.53 30.426,25.566 30.394,25.582ZM30.61,25.33C30.61,25.29 30.584,25.26 30.532,25.24C30.48,25.22 30.378,25.214 30.226,25.222L30.202,25.222C30.042,25.23 29.936,25.22 29.884,25.192C29.832,25.164 29.818,25.11 29.842,25.03C29.858,25.142 29.9,25.202 29.968,25.21C30.036,25.218 30.146,25.186 30.298,25.114C30.306,25.114 30.314,25.11 30.322,25.102C30.426,25.054 30.518,25.022 30.598,25.006C30.63,25.006 30.654,25.016 30.67,25.036C30.686,25.056 30.694,25.09 30.694,25.138C30.67,25.218 30.642,25.282 30.61,25.33ZM30.718,25.018C30.702,24.978 30.664,24.96 30.604,24.964C30.544,24.968 30.442,25.002 30.298,25.066L30.274,25.078C30.138,25.142 30.04,25.168 29.98,25.156C29.92,25.144 29.89,25.106 29.89,25.042C29.93,25.13 29.982,25.17 30.046,25.162C30.11,25.154 30.19,25.098 30.286,24.994L30.31,24.97C30.334,24.954 30.35,24.938 30.358,24.922C30.438,24.834 30.51,24.766 30.574,24.718C30.638,24.694 30.686,24.722 30.718,24.802L30.718,25.018ZM30.694,24.682C30.646,24.642 30.598,24.642 30.55,24.682C30.518,24.698 30.466,24.738 30.394,24.802L30.322,24.886C30.298,24.918 30.274,24.942 30.25,24.958C30.17,25.054 30.104,25.102 30.052,25.102C30,25.102 29.958,25.074 29.926,25.018C30.006,25.082 30.082,25.09 30.154,25.042C30.202,25.002 30.258,24.902 30.322,24.742L30.358,24.634C30.406,24.538 30.44,24.48 30.46,24.46C30.48,24.44 30.502,24.432 30.526,24.436C30.55,24.44 30.578,24.458 30.61,24.49C30.642,24.538 30.67,24.602 30.694,24.682ZM30.538,24.382C30.506,24.366 30.47,24.378 30.43,24.418C30.39,24.458 30.346,24.542 30.298,24.67L30.274,24.718C30.242,24.806 30.216,24.872 30.196,24.916C30.176,24.96 30.15,24.99 30.118,25.006C30.078,25.046 30.026,25.042 29.962,24.994C30.074,25.018 30.146,24.994 30.178,24.922C30.202,24.89 30.216,24.85 30.22,24.802C30.224,24.754 30.222,24.682 30.214,24.586L30.214,24.562C30.214,24.41 30.218,24.314 30.226,24.274C30.25,24.218 30.302,24.206 30.382,24.238C30.414,24.254 30.454,24.29 30.502,24.346L30.538,24.382ZM31.09,24.898C31.258,24.594 31.386,24.242 31.474,23.842C31.562,23.442 31.606,23.018 31.606,22.57C31.606,22.074 31.55,21.608 31.438,21.172C31.326,20.736 31.172,20.364 30.976,20.056C30.78,19.748 30.558,19.534 30.31,19.414L30.31,17.458C30.67,17.586 30.996,17.856 31.288,18.268C31.58,18.68 31.81,19.186 31.978,19.786C32.146,20.41 32.23,21.07 32.23,21.766C32.23,22.558 32.122,23.294 31.906,23.974C31.698,24.638 31.414,25.166 31.054,25.558C30.694,25.95 30.298,26.146 29.866,26.146C29.434,26.146 29.038,25.95 28.678,25.558C28.318,25.166 28.034,24.638 27.826,23.974C27.61,23.294 27.502,22.558 27.502,21.766C27.502,21.07 27.586,20.41 27.754,19.786C27.922,19.186 28.152,18.68 28.444,18.268C28.736,17.856 29.062,17.586 29.422,17.458L29.422,19.414C29.174,19.534 28.952,19.748 28.756,20.056C28.56,20.364 28.406,20.736 28.294,21.172C28.182,21.608 28.126,22.074 28.126,22.57C28.126,23.018 28.17,23.442 28.258,23.842C28.346,24.242 28.474,24.594 28.642,24.898C28.642,24.794 28.654,24.694 28.678,24.598C28.422,24.022 28.294,23.346 28.294,22.57C28.294,21.882 28.398,21.264 28.606,20.716C28.814,20.168 29.086,19.802 29.422,19.618L29.422,19.678C29.102,19.87 28.842,20.232 28.642,20.764C28.442,21.296 28.342,21.898 28.342,22.57C28.342,23.322 28.462,23.974 28.702,24.526C28.734,24.438 28.786,24.334 28.858,24.214C28.658,23.75 28.558,23.202 28.558,22.57C28.558,22.026 28.638,21.534 28.798,21.094C28.958,20.654 29.166,20.342 29.422,20.158L29.422,20.41C29.206,20.586 29.03,20.87 28.894,21.262C28.758,21.654 28.69,22.09 28.69,22.57C28.69,23.13 28.782,23.634 28.966,24.082C29.158,23.882 29.382,23.758 29.638,23.71L29.638,17.326L29.734,17.326L29.734,23.698C29.75,23.698 29.762,23.694 29.77,23.686L29.77,17.074L29.962,17.074L29.962,23.686C29.97,23.694 29.982,23.698 29.998,23.698L29.998,17.326L30.094,17.326L30.094,23.71C30.35,23.758 30.574,23.882 30.766,24.082C30.95,23.634 31.042,23.13 31.042,22.57C31.042,22.09 30.974,21.654 30.838,21.262C30.702,20.87 30.526,20.586 30.31,20.41L30.31,20.158C30.566,20.342 30.774,20.654 30.934,21.094C31.094,21.534 31.174,22.026 31.174,22.57C31.174,23.202 31.074,23.75 30.874,24.214C30.938,24.294 30.99,24.398 31.03,24.526C31.27,23.974 31.39,23.322 31.39,22.57C31.39,21.898 31.29,21.296 31.09,20.764C30.89,20.232 30.63,19.87 30.31,19.678L30.31,19.618C30.646,19.802 30.918,20.168 31.126,20.716C31.334,21.264 31.438,21.882 31.438,22.57C31.438,23.346 31.31,24.022 31.054,24.598C31.078,24.694 31.09,24.794 31.09,24.898ZM30.142,17.422L30.226,17.422L30.226,20.398L30.142,20.47L30.142,17.422ZM29.59,17.422L29.59,20.47L29.506,20.398L29.506,17.422L29.59,17.422ZM29.866,26.014C30.17,26.014 30.428,25.906 30.64,25.69C30.852,25.474 30.958,25.216 30.958,24.916C30.958,24.616 30.852,24.358 30.64,24.142C30.428,23.926 30.17,23.818 29.866,23.818C29.562,23.818 29.304,23.926 29.092,24.142C28.88,24.358 28.774,24.616 28.774,24.916C28.774,25.216 28.882,25.474 29.098,25.69C29.314,25.906 29.57,26.014 29.866,26.014ZM29.866,25.894C29.594,25.894 29.364,25.8 29.176,25.612C28.988,25.424 28.894,25.194 28.894,24.922C28.894,24.65 28.988,24.418 29.176,24.226C29.364,24.034 29.594,23.938 29.866,23.938C30.138,23.938 30.37,24.034 30.562,24.226C30.754,24.418 30.85,24.65 30.85,24.922C30.85,25.194 30.754,25.424 30.562,25.612C30.37,25.8 30.138,25.894 29.866,25.894ZM29.866,25.834C30.122,25.834 30.34,25.744 30.52,25.564C30.7,25.384 30.79,25.168 30.79,24.916C30.79,24.664 30.7,24.448 30.52,24.268C30.34,24.088 30.122,23.998 29.866,23.998C29.61,23.998 29.392,24.088 29.212,24.268C29.032,24.448 28.942,24.664 28.942,24.916C28.942,25.168 29.032,25.384 29.212,25.564C29.392,25.744 29.61,25.834 29.866,25.834Z" style="fill:rgb(219,142,87);fill-rule:nonzero;"/>
                    </g>
                </g>
            </g>
        </g>
    </g>
</svg>
